svgs/light/chart-scatter-3d.svg

<svg xmlns="http://www.w3.org/2000/svg" viewBox="0 0 512 512"><!-- Font Awesome Pro 6.0.0-alpha2 by @fontawesome - https://fontawesome.com License - https://fontawesome.com/license (Commercial License) --><path d="M272 280.58V48C272 39.156 264.844 32 256 32S240 39.156 240 48V280.58L37.672 451.781C30.922 457.5 30.078 467.594 35.781 474.328C41.484 481.078 51.563 481.922 58.328 476.219L256 308.953L453.672 476.219C456.672 478.75 460.344 480 463.984 480C468.531 480 473.047 478.078 476.219 474.328C481.922 467.594 481.078 457.5 474.328 451.781L272 280.58ZM32 96C49.674 96 64 81.674 64 64S49.674 32 32 32S0 46.326 0 64S14.326 96 32 96ZM64 256C64 238.326 49.674 224 32 224S0 238.326 0 256S14.326 288 32 288S64 273.674 64 256ZM128 192C145.674 192 160 177.674 160 160S145.674 128 128 128S96 142.326 96 160S110.326 192 128 192ZM256 416C238.326 416 224 430.326 224 448S238.326 480 256 480S288 465.674 288 448S273.674 416 256 416ZM384 288C401.674 288 416 273.674 416 256S401.674 224 384 224S352 238.326 352 256S366.326 288 384 288ZM480 128C462.326 128 448 142.326 448 160S462.326 192 480 192S512 177.674 512 160S497.674 128 480 128ZM384 96C401.674 96 416 81.674 416 64S401.674 32 384 32S352 46.326 352 64S366.326 96 384 96Z"/></svg>

<svg xmlns="http://www.w3.org/2000/svg" viewBox="0 0 512 512"><!--! Font Awesome Pro 6.0.0-alpha3 by @fontawesome - https://fontawesome.com License - https://fontawesome.com/license (Commercial License) --><path d="M272 280.6V48C272 39.16 264.8 32 256 32S240 39.16 240 48v232.6l-202.3 171.2c-6.75 5.719-7.594 15.81-1.891 22.55c5.703 6.75 15.78 7.594 22.55 1.891L256 308.1l197.7 167.3C456.7 478.8 460.3 480 463.1 480c4.547 0 9.062-1.922 12.23-5.672c5.703-6.734 4.859-16.83-1.891-22.55L272 280.6zM32 96c17.67 0 32-14.33 32-32S49.67 32 32 32S0 46.33 0 64S14.33 96 32 96zM64 256c0-17.67-14.33-32-32-32S0 238.3 0 256s14.33 32 32 32S64 273.7 64 256zM128 192c17.67 0 32-14.33 32-32S145.7 128 128 128S96 142.3 96 160S110.3 192 128 192zM256 416c-17.67 0-32 14.33-32 32s14.33 32 32 32s32-14.33 32-32S273.7 416 256 416zM384 288c17.67 0 32-14.33 32-32s-14.33-32-32-32s-32 14.33-32 32S366.3 288 384 288zM480 128c-17.67 0-32 14.33-32 32s14.33 32 32 32s32-14.33 32-32S497.7 128 480 128zM384 96c17.67 0 32-14.33 32-32s-14.33-32-32-32s-32 14.33-32 32S366.3 96 384 96z"/></svg>
